X:587
M:C|
L:1/8
K:E Minor
|:d|efge dBBe|cA A/A/A dBBd|1 efge dBBe|cABG E2E:|2
efge dgBb|cABG E2E||

